Obsidian-SemiLight/actions/22s/tag-recents.svg

<svg viewBox="0 0 22 22" xmlns="http://www.w3.org/2000/svg"><path d="m9 3-6 2 2 6 5 2.5v-3.5h8l1-2zm-6 2v6l7 7v-3.726562l-6-3.273438zm3.5 0c.831 0 1.5.669 1.5 1.5s-.669 1.5-1.5 1.5-1.5-.669-1.5-1.5.669-1.5 1.5-1.5zm8.5 6c-2.216 0-4 1.784-4 4s1.784 4 4 4 4-1.784 4-4-1.784-4-4-4zm0 1c1.66199 0 3 1.338 3 3s-1.33801 3-3 3-3-1.338-3-3 1.33801-3 3-3zm-1 1v2 1h1 1v-1h-1v-2z" fill="#4d4d4d"/></svg>

<svg xmlns="http://www.w3.org/2000/svg" viewBox="0 0 22 22">
  <defs id="defs3051">
    <style type="text/css" id="current-color-scheme">
      .ColorScheme-Text {
        color:#4d4d4d;
      }
      .ColorScheme-Highlight {
        color:#3daee9;
      }
      </style>
  </defs>
 <path 
     style="fill:currentColor;fill-opacity:1;stroke:none" 
     d="M 9 3 L 3 5 L 5 11 L 10 13.5 L 10 10 L 18 10 L 19 8 L 9 3 z M 3 5 L 3 11 L 10 18 L 10 14.273438 L 4 11 L 3 5 z M 6.5 5 C 7.331 5 8 5.669 8 6.5 C 8 7.331 7.331 8 6.5 8 C 5.669 8 5 7.331 5 6.5 C 5 5.669 5.669 5 6.5 5 z M 15 11 C 12.784 11 11 12.784 11 15 C 11 17.216 12.784 19 15 19 C 17.216 19 19 17.216 19 15 C 19 12.784 17.216 11 15 11 z M 15 12 C 16.66199 12 18 13.338 18 15 C 18 16.662 16.66199 18 15 18 C 13.33801 18 12 16.662 12 15 C 12 13.338 13.33801 12 15 12 z M 14 13 L 14 15 L 14 16 L 15 16 L 16 16 L 16 15 L 15 15 L 15 13 L 14 13 z "
     class="ColorScheme-Text"
     />
</svg>
